svgs/sharp-solid/box-archive.svg

<svg xmlns="http://www.w3.org/2000/svg" viewBox="0 0 512 512"><!--! Font Awesome Pro 6.6.0 by @fontawesome - https://fontawesome.com License - https://fontawesome.com/license (Commercial License) Copyright 2024 Fonticons, Inc. --><path d="M512 32l0 96L0 128 0 32l512 0zM32 160l448 0 0 320L32 480l0-320zm128 64l0 32 16 0 160 0 16 0 0-32-16 0-160 0-16 0z"/></svg>

<svg xmlns="http://www.w3.org/2000/svg" viewBox="0 0 512 512"><!--! Font Awesome Pro 6.4.2 by @fontawesome - https://fontawesome.com License - https://fontawesome.com/license (Commercial License) Copyright 2023 Fonticons, Inc. --><path d="M512 32v96H0V32H512zM32 160H480V480H32V160zm128 64v32h16H336h16V224H336 176 160z"/></svg>
